img/book/setka-author.svg

<svg xmlns="http://www.w3.org/2000/svg" width="1263" height="149" viewBox="0 0 1263 149"><path d="M1258.891 37.062a3.574 3.574 0 0 1-2.95-1.554l-75.929 44.428 45.116 54.177a3.609 3.609 0 1 1-1.034 2.528c0-.823.278-1.578.741-2.185l-45.282-54.379-106.398-23.724a4.796 4.796 0 0 1-4.546 3.272c-.359 0-.708-.043-1.045-.118l-14.818 45.911a3.591 3.591 0 0 1 2.41 3.394 3.586 3.586 0 0 1-3.578 3.594 3.586 3.586 0 0 1-3.578-3.594c0-.184.018-.364.045-.541L940.977 86.149a4.792 4.792 0 0 1-4.336 2.757 4.792 4.792 0 0 1-4.151-2.399l-101.492 46.108c.041.216.065.438.065.666a3.602 3.602 0 0 1-3.61 3.594 3.604 3.604 0 0 1-3.543-2.917l-136.535-10.1a3.593 3.593 0 0 1-7-1.139c0-.338.05-.664.137-.975l-71.395-42.099-103.949 45.033c.155.546.219 1.126.167 1.724a4.798 4.798 0 0 1-5.201 4.359 4.798 4.798 0 0 1-4.361-5.199c.021-.232.063-.456.114-.676L339.703 63.172a3.581 3.581 0 0 1-3.634 1.147l-29.813 77.895a3.606 3.606 0 0 1 1.681 3.052 3.6 3.6 0 0 1-3.593 3.609 3.602 3.602 0 0 1-3.594-3.609 3.602 3.602 0 0 1 3.594-3.61 3.55 3.55 0 0 1 1.52.343l29.782-77.816a3.6 3.6 0 0 1-2.027-2.045l-171.001 8.066a4.794 4.794 0 0 1-9.524-.782c0-.553.098-1.081.27-1.575L73.899 21.359a3.602 3.602 0 0 1-2.633 1.141 3.6 3.6 0 0 1-3.604-3.478L-.053.991 1.559.977l66.114 17.602a3.602 3.602 0 0 1 3.593-3.266 3.608 3.608 0 0 1 3.45 2.537L100.909.981l.593.014L74.803 18.19c.032.157.05.319.06.483L128.319.986l1.471-.025-54.927 18.173a3.558 3.558 0 0 1-.696 1.904l79.35 46.421a4.795 4.795 0 0 1 4.374-2.834c.431 0 .847.062 1.245.169l17.711-63.713.454-.075-17.767 63.914a4.795 4.795 0 0 1 3.154 4.502c0 .127-.01.252-.02.377l170.825-8.057a3.588 3.588 0 0 1-.118-.898c0-.178.017-.351.042-.521L216.211 1.04l.746-.117L333.51 59.878a3.591 3.591 0 1 1 6.787-.386L440.601.969l.803.046L340.438 59.92c.079.295.125.604.125.924 0 .106-.007.212-.016.316l78.267-8.46-.002-.028a3.602 3.602 0 0 1 3.594-3.61c.703 0 1.357.206 1.911.557L453.442 1.03l.546-.048-29.309 48.895a3.608 3.608 0 0 1 .746 4.748l71.542 68.177a4.819 4.819 0 0 1 1.846-1.287L463.673 1.03l.482.068 35.079 120.275a4.773 4.773 0 0 1 4.335.875l64.384-80.676a3.598 3.598 0 0 1-.689-3.434L485.079.924l1.117.018 81.23 36.784a3.592 3.592 0 0 1 2.911-2.083l3.847-34.555.384-.006-3.846 34.545a3.597 3.597 0 0 1 3.498 2.956l66.826-6.355c.08-.96.536-1.811 1.22-2.408L615.92 1.049l.668.08 26.025 28.42a3.548 3.548 0 0 1 1.996-.612 3.58 3.58 0 0 1 3.291 2.182l68.969-16.208a3.55 3.55 0 0 1-.057-.614 3.608 3.608 0 0 1 3.535-3.606l1.311-9.669.456-.06-1.321 9.744a3.61 3.61 0 0 1 3.238 3.591c0 .407-.07.797-.195 1.162l78.092 27.091a3.6 3.6 0 0 1 2.372-2.417l1.885-39.104.442.06-1.877 38.938a3.574 3.574 0 0 1 2.982.827l45.939-33.926a4.77 4.77 0 0 1-1.015-2.944c0-1.133.393-2.174 1.05-2.994l1.554-.003-.023-.052.03.052 5.922-.012a4.776 4.776 0 0 1 1.061 3.009 4.786 4.786 0 0 1-1.786 3.732l72.192 73.723a4.792 4.792 0 0 1 5.951-1.702l48.322-76.543.18.113-.179-.113 1.394-2.2.591-.107-1.492 2.356 77.153 48.995a4.805 4.805 0 0 1 2.28-1.871L1049.798.947l.511.121 16.967 49.155c.424-.123.87-.192 1.333-.192.559 0 1.093.101 1.592.276l17.285-49.245.493-.065-17.366 49.477a4.802 4.802 0 0 1 1.817 1.462l51.67-40.965a3.564 3.564 0 0 1 .898-4.157L1120.91.983l.508-.049 3.929 5.605a3.606 3.606 0 0 1 2.044-.633c1.107 0 2.098.498 2.76 1.281l12.538-6.221.924.035-13.194 6.547c.366.562.581 1.232.581 1.952a3.58 3.58 0 0 1-1.423 2.855l49.877 66.855V1.089h.443v78.4l75.817-44.362a3.56 3.56 0 0 1-.402-1.643 3.577 3.577 0 0 1 2.724-3.471L1251.414.941l.477.096 6.582 28.896a3.578 3.578 0 1 1 .418 7.129zM425.163 54.986a3.581 3.581 0 0 1-2.757 1.295 3.597 3.597 0 0 1-3.56-3.139l-78.368 8.472a3.599 3.599 0 0 1-.5 1.192l156.03 61.651c.159-.476.39-.915.679-1.308l-71.524-68.163zm145.524-12.142a3.567 3.567 0 0 1-2.424-.951l-64.362 80.651a4.827 4.827 0 0 1 1.127 1.714l103.723-44.936-36.014-37.125a3.56 3.56 0 0 1-2.05.647zm70.351-10.171l-66.767 6.351c.004.07.01.139.01.21a3.6 3.6 0 0 1-1.197 2.684l36.029 37.139 33.011-43.944a3.59 3.59 0 0 1-1.086-2.44zm3.571 3.452a3.548 3.548 0 0 1-2.148-.725L609.46 79.332l71.199 41.984a3.597 3.597 0 0 1 1.258-1.545l-35.904-83.934a3.55 3.55 0 0 1-1.404.288zm72.359-20.782l-68.922 16.194a3.593 3.593 0 0 1-1.638 4.098l35.891 83.903a3.571 3.571 0 0 1 1.67-.413c.3 0 .591.041.87.111l33.953-101.722a3.611 3.611 0 0 1-1.824-2.171zm84.813 28.219c0-.197.02-.389.051-.578L723.667 15.87a3.606 3.606 0 0 1-3.245 2.036c-.429 0-.839-.078-1.221-.216l-33.939 101.679a3.607 3.607 0 0 1 1.791 1.511l114.985-75.99a3.573 3.573 0 0 1-.257-1.328zm3.241 3.576a3.591 3.591 0 0 1-2.795-1.843l-114.969 75.979a3.576 3.576 0 0 1 .234 2.149l136.363 10.088c-.004-.076-.011-.152-.011-.23 0-1.528.96-2.83 2.311-3.35l-21.133-82.793zm.461.013l21.095 82.647a3.66 3.66 0 0 1 .875-.111 3.609 3.609 0 0 1 3.435 2.491l101.399-46.064a4.767 4.767 0 0 1-.443-2.005c0-.083.008-.165.012-.247L808.58 45.182a3.588 3.588 0 0 1-3.097 1.969zm54.62-39.17c-.759.505-1.67.8-2.65.8a4.777 4.777 0 0 1-3.492-1.515l-45.91 33.903a3.577 3.577 0 0 1 .704 3.606L931.9 83.412a4.784 4.784 0 0 1 .519-1.581l-72.316-73.85zm127.083-4.362l-48.18 76.32a4.796 4.796 0 0 1 2.362 3.385l122.59-27.341a4.834 4.834 0 0 1-.146-1.155c0-.797.198-1.547.542-2.208L987.186 3.619zm76.899 52.79L941.42 83.765c.008.114.017.228.017.344 0 .571-.104 1.116-.287 1.623l106.987 22.104a3.579 3.579 0 0 1 4.181-2.539l14.817-45.905a4.804 4.804 0 0 1-3.05-2.983zm65.123-43.808a3.605 3.605 0 0 1-4.897-1.235l-51.63 40.934a4.77 4.77 0 0 1 .594 3.628l105.865 23.603-49.932-66.93zm50.467 67.276h.001-.001zM334.157 1.742l-6.595-.783 3.135-.027 3.366.4.075.208-.021-.221 3.639-.344 4.98-.026-8.577.812-.002-.019z" fill="#1F93E2" opacity=".22"/></svg>

<svg version="1.1" xmlns="http://www.w3.org/2000/svg" xmlns:xlink="http://www.w3.org/1999/xlink" width="1263" height="149" viewBox="0 0 1263 149"><path id="setkaAuthor" d="M1258.891,37.062 C1257.666,37.062 1256.586,36.446 1255.941,35.508 C1255.941,35.508 1180.012,79.936 1180.012,79.936 C1180.012,79.936 1225.128,134.113 1225.128,134.113 C1225.783,133.446 1226.694,133.031 1227.703,133.031 C1229.697,133.031 1231.312,134.647 1231.312,136.641 C1231.312,138.634 1229.697,140.250 1227.703,140.250 C1225.710,140.250 1224.094,138.634 1224.094,136.641 C1224.094,135.818 1224.372,135.063 1224.835,134.456 C1224.835,134.456 1179.553,80.077 1179.553,80.077 C1179.553,80.077 1073.155,56.353 1073.155,56.353 C1072.517,58.254 1070.725,59.625 1068.609,59.625 C1068.250,59.625 1067.901,59.582 1067.564,59.507 C1067.564,59.507 1052.746,105.418 1052.746,105.418 C1054.148,105.905 1055.156,107.239 1055.156,108.812 C1055.156,110.797 1053.554,112.406 1051.578,112.406 C1049.602,112.406 1048.000,110.797 1048.000,108.812 C1048.000,108.628 1048.018,108.448 1048.045,108.271 C1048.045,108.271 940.977,86.149 940.977,86.149 C940.210,87.777 938.559,88.906 936.641,88.906 C934.866,88.906 933.320,87.940 932.490,86.507 C932.490,86.507 830.998,132.615 830.998,132.615 C831.039,132.831 831.063,133.053 831.063,133.281 C831.063,135.266 829.447,136.875 827.453,136.875 C825.692,136.875 824.228,135.619 823.910,133.958 C823.910,133.958 687.375,123.858 687.375,123.858 C686.898,125.284 685.555,126.313 683.969,126.313 C681.984,126.313 680.375,124.704 680.375,122.719 C680.375,122.381 680.425,122.055 680.512,121.744 C680.512,121.744 609.117,79.645 609.117,79.645 C609.117,79.645 505.168,124.678 505.168,124.678 C505.323,125.224 505.387,125.804 505.335,126.402 C505.103,129.042 502.774,130.994 500.134,130.761 C497.494,130.529 495.541,128.202 495.773,125.562 C495.794,125.330 495.836,125.106 495.887,124.886 C495.887,124.886 339.703,63.172 339.703,63.172 C339.044,63.946 338.064,64.437 336.969,64.437 C336.657,64.437 336.357,64.394 336.069,64.319 C336.069,64.319 306.256,142.214 306.256,142.214 C307.265,142.853 307.937,143.979 307.937,145.266 C307.937,147.259 306.329,148.875 304.344,148.875 C302.359,148.875 300.750,147.259 300.750,145.266 C300.750,143.272 302.359,141.656 304.344,141.656 C304.888,141.656 305.402,141.781 305.864,141.999 C305.864,141.999 335.646,64.183 335.646,64.183 C334.717,63.815 333.980,63.071 333.619,62.138 C333.619,62.138 162.618,70.204 162.618,70.204 C162.244,72.480 160.273,74.219 157.891,74.219 C155.241,74.219 153.094,72.071 153.094,69.422 C153.094,68.869 153.192,68.341 153.364,67.847 C153.364,67.847 73.899,21.359 73.899,21.359 C73.240,22.060 72.306,22.500 71.266,22.500 C69.311,22.500 67.724,20.953 67.662,19.022 C56.672,16.096 25.412,7.772 -0.053,0.991 C-0.053,0.991 1.559,0.977 1.559,0.977 C26.638,7.654 56.757,15.673 67.673,18.579 C67.839,16.748 69.383,15.313 71.266,15.313 C72.890,15.313 74.263,16.381 74.716,17.850 C79.502,14.767 89.374,8.410 100.909,0.981 C100.909,0.981 101.502,0.995 101.502,0.995 C89.621,8.647 79.477,15.180 74.803,18.190 C74.835,18.347 74.853,18.509 74.863,18.673 C83.000,15.980 105.818,8.431 128.319,0.986 C128.319,0.986 129.790,0.961 129.790,0.961 C106.701,8.600 82.971,16.451 74.863,19.134 C74.819,19.845 74.567,20.498 74.167,21.038 C74.167,21.038 153.517,67.459 153.517,67.459 C154.268,65.789 155.942,64.625 157.891,64.625 C158.322,64.625 158.738,64.687 159.136,64.794 C162.615,52.277 171.312,20.994 176.847,1.081 C176.847,1.081 177.301,1.006 177.301,1.006 C171.742,21.003 162.985,52.505 159.534,64.920 C161.373,65.592 162.688,67.351 162.688,69.422 C162.688,69.549 162.678,69.674 162.668,69.799 C162.668,69.799 333.493,61.742 333.493,61.742 C333.419,61.455 333.375,61.155 333.375,60.844 C333.375,60.666 333.392,60.493 333.417,60.323 C318.511,52.784 256.149,21.241 216.211,1.040 C216.211,1.040 216.957,0.923 216.957,0.923 C256.841,21.097 318.528,52.299 333.510,59.878 C333.933,58.363 335.319,57.250 336.969,57.250 C338.475,57.250 339.763,58.177 340.297,59.492 C354.886,50.980 410.398,18.591 440.601,0.969 C440.601,0.969 441.404,1.015 441.404,1.015 C411.276,18.592 354.981,51.435 340.438,59.920 C340.517,60.215 340.563,60.524 340.563,60.844 C340.563,60.950 340.556,61.056 340.547,61.160 C340.547,61.160 418.814,52.700 418.814,52.700 C418.814,52.690 418.812,52.681 418.812,52.672 C418.812,50.678 420.421,49.062 422.406,49.062 C423.109,49.062 423.763,49.268 424.317,49.619 C429.303,41.301 444.443,16.042 453.442,1.030 C453.442,1.030 453.988,0.982 453.988,0.982 C444.998,15.979 429.674,41.544 424.679,49.877 C425.485,50.539 426.000,51.545 426.000,52.672 C426.000,53.392 425.787,54.062 425.425,54.625 C425.425,54.625 496.967,122.802 496.967,122.802 C497.470,122.236 498.102,121.793 498.813,121.515 C493.067,101.812 471.918,29.299 463.673,1.030 C463.673,1.030 464.155,1.098 464.155,1.098 C472.436,29.491 493.491,101.681 499.234,121.373 C499.784,121.215 500.370,121.149 500.974,121.202 C501.961,121.289 502.852,121.669 503.569,122.248 C503.569,122.248 567.953,41.572 567.953,41.572 C567.418,40.942 567.094,40.127 567.094,39.234 C567.094,38.852 567.154,38.484 567.264,38.138 C556.020,33.047 512.972,13.554 485.079,0.924 C485.079,0.924 486.196,0.942 486.196,0.942 C514.092,13.574 556.281,32.679 567.426,37.726 C567.949,36.588 569.040,35.769 570.337,35.643 C571.035,29.376 572.595,15.362 574.184,1.088 C574.184,1.088 574.568,1.082 574.568,1.082 C572.992,15.237 571.439,29.185 570.722,35.627 C572.469,35.644 573.916,36.912 574.220,38.583 C574.220,38.583 641.046,32.228 641.046,32.228 C641.126,31.268 641.582,30.417 642.266,29.820 C637.817,24.962 627.218,13.388 615.920,1.049 C615.920,1.049 616.588,1.129 616.588,1.129 C627.758,13.326 638.194,24.723 642.613,29.549 C643.183,29.163 643.870,28.937 644.609,28.937 C646.086,28.937 647.353,29.836 647.900,31.119 C647.900,31.119 716.869,14.911 716.869,14.911 C716.834,14.711 716.812,14.507 716.812,14.297 C716.812,12.329 718.388,10.732 720.347,10.691 C720.663,8.358 721.115,5.024 721.658,1.022 C721.658,1.022 722.114,0.962 722.114,0.962 C721.568,4.992 721.112,8.352 720.793,10.706 C722.612,10.892 724.031,12.429 724.031,14.297 C724.031,14.704 723.961,15.094 723.836,15.459 C723.836,15.459 801.928,42.550 801.928,42.550 C802.266,41.401 803.159,40.490 804.300,40.133 C804.618,33.544 805.351,18.341 806.185,1.029 C806.185,1.029 806.627,1.089 806.627,1.089 C805.799,18.273 805.070,33.375 804.750,40.027 C804.953,39.991 805.161,39.969 805.375,39.969 C806.278,39.969 807.101,40.304 807.732,40.854 C807.732,40.854 853.671,6.928 853.671,6.928 C853.037,6.115 852.656,5.095 852.656,3.984 C852.656,2.851 853.049,1.810 853.706,0.990 C853.706,0.990 855.260,0.987 855.260,0.987 C855.260,0.987 855.237,0.935 855.237,0.935 C855.248,0.953 855.257,0.969 855.267,0.987 C855.267,0.987 861.189,0.975 861.189,0.975 C861.853,1.798 862.250,2.845 862.250,3.984 C862.250,5.493 861.552,6.837 860.464,7.716 C860.464,7.716 932.656,81.439 932.656,81.439 C933.517,80.157 934.980,79.313 936.641,79.313 C937.342,79.313 938.007,79.467 938.607,79.737 C938.607,79.737 986.929,3.194 986.929,3.194 L987.109,3.307 L986.930,3.194 C986.930,3.194 987.431,2.403 988.324,0.994 C988.324,0.994 988.915,0.887 988.915,0.887 C988.157,2.085 987.641,2.898 987.423,3.243 C987.423,3.243 1064.576,52.238 1064.576,52.238 C1065.117,51.397 1065.913,50.738 1066.856,50.367 C1063.788,41.478 1056.915,21.567 1049.798,0.947 C1049.798,0.947 1050.309,1.068 1050.309,1.068 C1057.392,21.590 1064.220,41.370 1067.276,50.223 C1067.700,50.100 1068.146,50.031 1068.609,50.031 C1069.168,50.031 1069.702,50.132 1070.201,50.307 C1073.477,40.974 1080.994,19.557 1087.486,1.062 C1087.486,1.062 1087.979,0.997 1087.979,0.997 C1081.466,19.553 1073.898,41.115 1070.613,50.474 C1071.334,50.806 1071.955,51.310 1072.430,51.936 C1072.430,51.936 1124.100,10.971 1124.100,10.971 C1123.897,10.521 1123.781,10.025 1123.781,9.500 C1123.781,8.430 1124.253,7.473 1124.998,6.814 C1123.984,5.368 1122.567,3.347 1120.910,0.983 C1120.910,0.983 1121.418,0.934 1121.418,0.934 C1123.005,3.199 1124.363,5.136 1125.347,6.539 C1125.928,6.141 1126.632,5.906 1127.391,5.906 C1128.498,5.906 1129.489,6.404 1130.151,7.187 C1133.047,5.749 1137.549,3.516 1142.689,0.966 C1142.689,0.966 1143.613,1.001 1143.613,1.001 C1138.206,3.684 1133.451,6.043 1130.419,7.548 C1130.785,8.110 1131.000,8.780 1131.000,9.500 C1131.000,10.666 1130.440,11.698 1129.577,12.355 C1129.577,12.355 1179.454,79.210 1179.454,79.210 C1179.454,73.210 1179.454,27.316 1179.454,1.089 C1179.454,1.089 1179.897,1.089 1179.897,1.089 C1179.897,27.763 1179.897,74.789 1179.897,79.489 C1179.897,79.489 1255.714,35.127 1255.714,35.127 C1255.459,34.635 1255.312,34.077 1255.312,33.484 C1255.312,31.803 1256.473,30.397 1258.036,30.013 C1256.820,24.674 1254.323,13.715 1251.414,0.941 C1251.414,0.941 1251.891,1.037 1251.891,1.037 C1254.785,13.741 1257.265,24.627 1258.473,29.933 C1258.610,29.917 1258.749,29.906 1258.891,29.906 C1260.867,29.906 1262.469,31.508 1262.469,33.484 C1262.469,35.461 1260.867,37.062 1258.891,37.062 zM425.163,54.986 C424.503,55.777 423.514,56.281 422.406,56.281 C420.580,56.281 419.076,54.913 418.846,53.142 C418.846,53.142 340.478,61.614 340.478,61.614 C340.383,62.045 340.212,62.447 339.978,62.806 C339.978,62.806 496.008,124.457 496.008,124.457 C496.167,123.981 496.398,123.542 496.687,123.149 C496.687,123.149 425.163,54.986 425.163,54.986 zM570.687,42.844 C569.752,42.844 568.903,42.482 568.263,41.893 C568.263,41.893 503.901,122.544 503.901,122.544 C504.394,123.025 504.777,123.610 505.028,124.258 C505.028,124.258 608.751,79.322 608.751,79.322 C608.751,79.322 572.737,42.197 572.737,42.197 C572.156,42.604 571.450,42.844 570.687,42.844 zM641.038,32.673 C641.038,32.673 574.271,39.024 574.271,39.024 C574.275,39.094 574.281,39.163 574.281,39.234 C574.281,40.302 573.817,41.258 573.084,41.918 C573.084,41.918 609.113,79.057 609.113,79.057 C609.113,79.057 642.124,35.113 642.124,35.113 C641.483,34.490 641.076,33.630 641.038,32.673 zM644.609,36.125 C643.802,36.125 643.060,35.853 642.461,35.400 C642.461,35.400 609.460,79.332 609.460,79.332 C609.460,79.332 680.659,121.316 680.659,121.316 C680.925,120.689 681.365,120.155 681.917,119.771 C681.917,119.771 646.013,35.837 646.013,35.837 C645.582,36.022 645.108,36.125 644.609,36.125 zM716.968,15.343 C716.968,15.343 648.046,31.537 648.046,31.537 C648.136,31.853 648.188,32.186 648.188,32.531 C648.188,33.857 647.471,35.012 646.408,35.635 C646.408,35.635 682.299,119.538 682.299,119.538 C682.798,119.275 683.366,119.125 683.969,119.125 C684.269,119.125 684.560,119.166 684.839,119.236 C684.839,119.236 718.792,17.514 718.792,17.514 C717.922,17.073 717.255,16.292 716.968,15.343 zM801.781,43.562 C801.781,43.365 801.801,43.173 801.832,42.984 C801.832,42.984 723.667,15.870 723.667,15.870 C723.082,17.074 721.851,17.906 720.422,17.906 C719.993,17.906 719.583,17.828 719.201,17.690 C719.201,17.690 685.262,119.369 685.262,119.369 C686.015,119.660 686.643,120.196 687.053,120.880 C687.053,120.880 802.038,44.890 802.038,44.890 C801.874,44.479 801.781,44.032 801.781,43.562 zM805.022,47.138 C803.816,47.021 802.785,46.307 802.227,45.295 C802.227,45.295 687.258,121.274 687.258,121.274 C687.453,121.717 687.562,122.205 687.562,122.719 C687.562,122.960 687.538,123.196 687.492,123.423 C687.492,123.423 823.855,133.511 823.855,133.511 C823.851,133.435 823.844,133.359 823.844,133.281 C823.844,131.753 824.804,130.451 826.155,129.931 C826.155,129.931 805.022,47.138 805.022,47.138 zM805.483,47.151 C805.483,47.151 826.578,129.798 826.578,129.798 C826.859,129.729 827.151,129.687 827.453,129.687 C829.060,129.687 830.420,130.733 830.888,132.178 C830.888,132.178 932.287,86.114 932.287,86.114 C932.005,85.503 931.844,84.826 931.844,84.109 C931.844,84.026 931.852,83.944 931.856,83.862 C931.856,83.862 808.580,45.182 808.580,45.182 C808.003,46.322 806.838,47.111 805.483,47.151 zM860.103,7.981 C859.344,8.486 858.433,8.781 857.453,8.781 C856.075,8.781 854.836,8.197 853.961,7.266 C853.961,7.266 808.051,41.169 808.051,41.169 C808.620,41.805 808.969,42.642 808.969,43.562 C808.969,43.989 808.891,44.395 808.755,44.775 C808.755,44.775 931.900,83.412 931.900,83.412 C931.983,82.848 932.158,82.314 932.419,81.831 C932.419,81.831 860.103,7.981 860.103,7.981 zM987.186,3.619 C987.186,3.619 939.006,79.939 939.006,79.939 C940.239,80.640 941.128,81.871 941.368,83.324 C941.368,83.324 1063.958,55.983 1063.958,55.983 C1063.867,55.612 1063.812,55.227 1063.812,54.828 C1063.812,54.031 1064.010,53.281 1064.354,52.620 C1064.354,52.620 987.186,3.619 987.186,3.619 zM1064.085,56.409 C1064.085,56.409 941.420,83.765 941.420,83.765 C941.428,83.879 941.437,83.993 941.437,84.109 C941.437,84.680 941.333,85.225 941.150,85.732 C941.150,85.732 1048.137,107.836 1048.137,107.836 C1048.561,106.326 1049.939,105.219 1051.578,105.219 C1051.832,105.219 1052.079,105.246 1052.318,105.297 C1052.318,105.297 1067.135,59.392 1067.135,59.392 C1065.708,58.931 1064.578,57.820 1064.085,56.409 zM1129.208,12.601 C1128.674,12.912 1128.054,13.094 1127.391,13.094 C1126.085,13.094 1124.944,12.401 1124.311,11.366 C1124.311,11.366 1072.681,52.300 1072.681,52.300 C1073.138,53.035 1073.406,53.899 1073.406,54.828 C1073.406,55.207 1073.358,55.574 1073.275,55.928 C1073.275,55.928 1179.140,79.531 1179.140,79.531 C1179.140,79.531 1129.208,12.601 1129.208,12.601 zM1179.675,79.877 L1179.675,79.877 L1179.676,79.877 L1179.675,79.877 zM334.157,1.742 C333.874,1.708 331.526,1.429 327.562,0.959 C327.562,0.959 330.697,0.932 330.697,0.932 C332.871,1.190 334.063,1.332 334.063,1.332 L334.138,1.540 L334.117,1.319 C334.117,1.319 335.418,1.196 337.756,0.975 C337.756,0.975 342.736,0.949 342.736,0.949 C337.357,1.458 334.159,1.761 334.159,1.761 C334.159,1.761 334.157,1.742 334.157,1.742 z" fill="#1F93E2" opacity="0.220" /></svg>
